src/lib/packages/icons/src/assets/filled/angles-down-small.svg

<svg width="24" height="24" viewBox="0 0 24 24" fill="none" xmlns="http://www.w3.org/2000/svg">
<path d="M16.7071 12.293C17.0981 12.684 17.0981 13.3161 16.7071 13.7071L12.7071 17.7071C12.5121 17.9021 12.256 18 12 18C11.744 18 11.488 17.9021 11.293 17.7071L7.29301 13.7071C6.90201 13.3161 6.90201 12.684 7.29301 12.293C7.68401 11.902 8.31607 11.902 8.70707 12.293L12 15.586L15.293 12.293C15.684 11.902 16.3161 11.902 16.7071 12.293ZM11.293 11.7071C11.488 11.9021 11.744 12 12 12C12.256 12 12.5121 11.9021 12.7071 11.7071L16.7071 7.70707C17.0981 7.31607 17.0981 6.68401 16.7071 6.29301C16.3161 5.90201 15.684 5.90201 15.293 6.29301L12 9.58597L8.70707 6.29301C8.31607 5.90201 7.68401 5.90201 7.29301 6.29301C6.90201 6.68401 6.90201 7.31607 7.29301 7.70707L11.293 11.7071Z" fill="currentColor"/>
</svg>

<svg xmlns="http://www.w3.org/2000/svg" width="24" height="24" fill="none"><path fill="currentColor" d="M16.707 12.293a.999.999 0 0 1 0 1.414l-4 4a.997.997 0 0 1-1.414 0l-4-4a.999.999 0 1 1 1.414-1.414L12 15.586l3.293-3.293a.999.999 0 0 1 1.414 0Zm-5.414-.586a.997.997 0 0 0 1.414 0l4-4a.999.999 0 1 0-1.414-1.414L12 9.586 8.707 6.293a.999.999 0 1 0-1.414 1.414l4 4Z"/></svg>
